icons/chevron-down-12.svg

<svg width="12" height="12" viewBox="0 0 12 12" fill="none" xmlns="http://www.w3.org/2000/svg">
<path d="M6 8.825C5.8 8.825 5.6 8.725 5.5 8.625L2.2 5.325C1.9 5.025 1.9 4.525 2.2 4.225C2.5 3.925 3 3.925 3.3 4.225L6 6.925L8.7 4.225C9 3.925 9.5 3.925 9.8 4.225C10.1 4.525 10.1 5.025 9.8 5.325L6.6 8.525C6.4 8.725 6.2 8.825 6 8.825Z" fill="black"/>
</svg>

<svg xmlns="http://www.w3.org/2000/svg" width="12" height="12" viewBox="0 0 12 12"><path d="M6 8.825c-.2 0-.4-.1-.5-.2l-3.3-3.3c-.3-.3-.3-.8 0-1.1.3-.3.8-.3 1.1 0l2.7 2.7 2.7-2.7c.3-.3.8-.3 1.1 0 .3.3.3.8 0 1.1l-3.2 3.2c-.2.2-.4.3-.6.3Z"/></svg>
